public/assets/images/brand/09.svg

<svg width="121" height="28" viewBox="0 0 121 28" fill="none" xmlns="http://www.w3.org/2000/svg">
<path d="M106.288 9.42761C106.959 9.42761 107.514 9.08822 107.592 8.64826L108.257 1.31987C108.257 0.597082 107.385 0 106.288 0C105.19 0 104.325 0.597082 104.325 1.31987L104.99 8.64826C105.061 9.08193 105.616 9.42761 106.288 9.42761ZM102.221 11.7154C102.556 11.1497 102.531 10.5086 102.176 10.2258L95.991 6.00224C95.3454 5.63771 94.3835 6.07767 93.8347 7.00157C93.286 7.92548 93.3828 8.95623 94.022 9.31448L100.872 12.4193C101.304 12.5764 101.885 12.2747 102.221 11.7154ZM110.355 11.7091C110.691 12.2747 111.272 12.5764 111.704 12.4193L118.554 9.31448C119.199 8.94994 119.29 7.91919 118.747 7.00157C118.199 6.07767 117.23 5.644 116.591 6.00224L110.407 10.2258C110.052 10.5086 110.026 11.1497 110.355 11.7091ZM106.288 18.5787C106.959 18.5787 107.514 18.9181 107.592 19.358L108.257 26.6801C108.257 27.4092 107.385 28 106.288 28C105.19 28 104.325 27.4092 104.325 26.6801L104.99 19.358C105.061 18.9181 105.616 18.5787 106.288 18.5787ZM110.355 16.2909C110.691 15.7253 111.272 15.4299 111.704 15.5807L118.554 18.6855C119.199 19.0501 119.29 20.0808 118.747 21.0047C118.199 21.9223 117.23 22.3623 116.591 22.004L110.407 17.7868C110.052 17.4914 110.026 16.8566 110.355 16.2909ZM102.221 16.2846C102.556 16.8503 102.531 17.4914 102.176 17.7742L95.991 21.9915C95.3454 22.356 94.3835 21.916 93.8347 20.9921C93.286 20.0682 93.3828 19.0375 94.022 18.673L100.872 15.5681C101.304 15.4236 101.885 15.719 102.221 16.2846Z" fill="#EAF0FF"/>
<path d="M67.2753 17.7625C67.2753 17.9887 67.2559 18.2213 67.1914 18.4224C66.9267 19.2709 66.0293 19.9811 64.906 19.9811C63.97 19.9811 63.2211 19.4594 63.2211 18.3658C63.2211 16.6877 65.1191 16.2226 67.2753 16.2352V17.7625ZM70.6581 14.8399C70.6581 12.0745 69.4444 9.64214 65.345 9.64214C63.2405 9.64214 61.5684 10.2204 60.6582 10.7295L61.3231 12.9544C62.1559 12.439 63.4858 12.0179 64.7447 12.0179C66.8234 12.0116 67.1656 13.1681 67.1656 13.9034V14.0794C62.6336 14.0731 59.7608 15.6004 59.7608 18.7178C59.7608 20.6222 61.2198 22.4008 63.7569 22.4008C65.3192 22.4008 66.6233 21.7975 67.4044 20.8233H67.4819C67.4819 20.8233 67.9983 22.9351 70.8518 22.1243C70.7033 21.2444 70.6517 20.3079 70.6517 19.1829L70.6581 14.8399ZM0 5.87738C0 5.87738 2.96319 17.6996 3.43446 19.6166C3.98965 21.854 4.98383 22.6837 7.85018 22.1243L9.70298 14.7959C10.1743 12.9732 10.4841 11.6785 10.7875 9.82441H10.8392C11.0522 11.6974 11.3557 12.9795 11.7365 14.8022C11.7365 14.8022 12.4919 18.127 12.8728 19.8742C13.2601 21.6215 14.3382 22.7214 17.1465 22.1243L21.5557 5.87738H17.9986L16.4944 12.9041C16.0877 14.9467 15.7197 16.5494 15.4421 18.4161H15.3905C15.1323 16.562 14.803 15.0284 14.3963 13.0361L12.8276 5.87738H9.12197L7.44347 12.8538C6.96575 14.9782 6.52676 16.6877 6.2427 18.4915H6.19106C5.90055 16.7883 5.5132 14.6388 5.10004 12.5836C5.10004 12.5836 4.10585 7.5932 3.75724 5.87109L0 5.87738ZM28.2891 17.7625C28.2891 17.9887 28.2697 18.2213 28.2051 18.4224C27.9405 19.2709 27.0431 19.9811 25.9198 19.9811C24.9837 19.9811 24.2349 19.4594 24.2349 18.3658C24.2349 16.6877 26.1328 16.2226 28.2891 16.2352V17.7625ZM31.6783 14.8399C31.6783 12.0745 30.4647 9.64214 26.3653 9.64214C24.2607 9.64214 22.5886 10.2204 21.6784 10.7295L22.3433 12.9544C23.1761 12.439 24.506 12.0179 25.7649 12.0179C27.8501 12.0116 28.1858 13.1681 28.1858 13.9034V14.0794C23.6474 14.0731 20.781 15.6004 20.781 18.7178C20.781 20.6222 22.24 22.4008 24.7771 22.4008C26.3394 22.4008 27.6435 21.7975 28.4246 20.8233H28.5021C28.5021 20.8233 29.0186 22.9351 31.8785 22.1243C31.73 21.2444 31.6783 20.3079 31.6783 19.1829V14.8399ZM37.3271 18.6738V5.87738H33.9378V22.1243H37.3271V18.6738ZM81.6716 5.87738V17.863C81.6716 19.516 81.9944 20.6724 82.6722 21.3827C83.2726 22.0049 84.2539 22.4008 85.4289 22.4008C86.4295 22.4008 87.4172 22.2123 87.882 22.0489L87.8368 19.472C87.4882 19.5537 87.0944 19.6228 86.5521 19.6228C85.3966 19.6228 85.0092 18.9001 85.0092 17.4168V12.8287H87.9595V9.71756H85.0092V5.87738H81.6716ZM72.9176 9.91868V22.1243H76.4166V15.8769C76.4166 15.5375 76.436 15.2421 76.4941 14.9782C76.7523 13.6709 77.7788 12.835 79.2572 12.835C79.6639 12.835 79.9544 12.879 80.2643 12.9229V9.73013C79.9996 9.67985 79.8188 9.65471 79.496 9.65471C78.192 9.65471 76.7071 10.4718 76.0809 12.2316H75.9841V9.93125H72.9176M39.6964 9.91868V22.1243H43.105V14.9656C43.105 14.6325 43.1437 14.2742 43.2664 13.9663C43.5504 13.2435 44.2348 12.4013 45.3387 12.4013C46.7138 12.4013 47.3593 13.5326 47.3593 15.1667V22.1243H50.7615V14.8776C50.7615 14.5571 50.8067 14.1737 50.9035 13.8908C51.1811 13.0738 51.9235 12.4013 52.95 12.4013C54.3444 12.4013 55.0094 13.5137 55.0094 15.437V22.1243H58.418V14.9342C58.418 11.1443 56.4426 9.64214 54.2089 9.64214C53.2211 9.64214 52.44 9.88097 51.7363 10.3021C51.1424 10.6603 50.613 11.1631 50.1482 11.8231H50.0966C49.5607 10.5095 48.289 9.64214 46.6427 9.64214C44.5253 9.64214 43.5698 10.6855 42.9888 11.5779H42.9307V9.91868H39.6964Z" fill="#EAF0FF"/>
</svg>

<svg xmlns="http://www.w3.org/2000/svg" width="121" height="28" fill="none" viewBox="0 0 121 28"><path fill="#eaf0ff" d="M106.288 9.428c.671 0 1.226-.34 1.304-.78l.665-7.328c0-.723-.872-1.32-1.969-1.32-1.098 0-1.963.597-1.963 1.32l.665 7.328c.071.434.626.78 1.298.78m-4.067 2.287c.335-.565.31-1.206-.045-1.49l-6.185-4.223c-.646-.364-1.608.076-2.156 1-.549.923-.452 1.954.187 2.312l6.85 3.105c.432.157 1.013-.144 1.349-.704m8.134-.006c.336.566.917.867 1.349.71l6.85-3.105c.645-.364.736-1.395.193-2.312-.548-.924-1.517-1.358-2.156-1l-6.184 4.224c-.355.283-.381.924-.052 1.483m-4.067 6.87c.671 0 1.226.34 1.304.779l.665 7.322c0 .73-.872 1.32-1.969 1.32-1.098 0-1.963-.59-1.963-1.32l.665-7.322c.071-.44.626-.78 1.298-.78m4.067-2.288c.336-.566.917-.861 1.349-.71l6.85 3.105c.645.364.736 1.395.193 2.319-.548.917-1.517 1.357-2.156.999l-6.184-4.217c-.355-.296-.381-.93-.052-1.496m-8.134-.006c.335.565.31 1.206-.045 1.49l-6.185 4.217c-.646.364-1.608-.076-2.156-1-.549-.924-.452-1.954.187-2.319l6.85-3.105c.432-.144 1.013.151 1.349.717m-34.946 1.479c0 .226-.02.458-.084.66-.264.848-1.162 1.558-2.285 1.558-.936 0-1.685-.522-1.685-1.615 0-1.678 1.898-2.143 4.054-2.13zm3.383-2.923c0-2.765-1.214-5.198-5.313-5.198-2.105 0-3.777.578-4.687 1.088l.665 2.224c.833-.515 2.163-.936 3.422-.936 2.078-.006 2.42 1.15 2.42 1.885v.176c-4.531-.006-7.404 1.521-7.404 4.639 0 1.904 1.459 3.683 3.996 3.683 1.562 0 2.866-.604 3.647-1.578h.078s.516 2.112 3.37 1.301c-.149-.88-.2-1.816-.2-2.941zM0 5.877S2.963 17.7 3.434 19.617c.556 2.237 1.55 3.067 4.416 2.507l1.853-7.328c.471-1.823.781-3.117 1.085-4.972h.051c.213 1.873.517 3.156.897 4.978 0 0 .756 3.325 1.137 5.072.387 1.748 1.465 2.847 4.274 2.25l4.409-16.247h-3.557l-1.505 7.027c-.406 2.043-.774 3.645-1.052 5.512h-.052c-.258-1.854-.587-3.388-.994-5.38l-1.568-7.159H9.122l-1.679 6.977c-.477 2.124-.916 3.834-1.2 5.637H6.19a212 212 0 0 0-1.09-5.907s-.994-4.99-1.343-6.713zm28.29 11.886c0 .226-.02.458-.085.66-.264.848-1.162 1.558-2.285 1.558-.936 0-1.685-.522-1.685-1.615 0-1.678 1.898-2.143 4.054-2.13zm3.388-2.923c0-2.765-1.213-5.198-5.313-5.198-2.104 0-3.776.578-4.687 1.088l.665 2.224c.833-.515 2.163-.936 3.422-.936 2.085-.006 2.42 1.15 2.42 1.885v.176c-4.538-.006-7.404 1.521-7.404 4.639 0 1.904 1.459 3.683 3.996 3.683 1.562 0 2.866-.604 3.648-1.578h.077s.517 2.112 3.377 1.301c-.149-.88-.2-1.816-.2-2.941zm5.65 3.834V5.877h-3.39v16.247h3.39zM81.671 5.877v11.986c0 1.653.322 2.81 1 3.52.6.622 1.582 1.018 2.757 1.018 1 0 1.988-.189 2.453-.352l-.045-2.577c-.349.082-.743.15-1.285.15-1.155 0-1.543-.722-1.543-2.205v-4.588h2.95V9.718h-2.95v-3.84zM72.918 9.92v12.205h3.499v-6.247c0-.34.019-.635.077-.899.258-1.307 1.285-2.143 2.763-2.143.407 0 .697.044 1.007.088V9.73a3.6 3.6 0 0 0-.768-.075c-1.304 0-2.789.817-3.415 2.577h-.097v-2.3h-3.066m-33.222-.013v12.205h3.409v-7.158c0-.333.039-.692.161-1 .284-.723.969-1.565 2.073-1.565 1.375 0 2.02 1.132 2.02 2.766v6.957h3.402v-7.246c0-.32.046-.704.142-.987.278-.817 1.02-1.49 2.047-1.49 1.394 0 2.06 1.113 2.06 3.036v6.687h3.408v-7.19c0-3.79-1.975-5.292-4.21-5.292-.987 0-1.768.239-2.472.66-.594.358-1.123.861-1.588 1.521h-.051c-.536-1.314-1.808-2.18-3.454-2.18-2.118 0-3.073 1.042-3.654 1.935h-.058v-1.66z"/></svg>
